public/img/svgs/shapes/promotional-block-shape.svg

<svg width="590" height="120" viewBox="0 0 590 120" fill="none" xmlns="http://www.w3.org/2000/svg">
<g clip-path="url(#clip0)">
<path d="M647.143 72.3394C639.469 72.3394 632.416 68.9136 628.267 63.0138L603.583 28.1859C601.716 25.7118 599.02 25.3312 597.983 25.3312C596.946 25.3312 594.042 25.5215 592.382 28.1859L567.698 63.0138C563.549 68.9136 556.497 72.3394 548.822 72.3394C541.147 72.3394 534.094 68.9136 529.946 63.0138L505.262 28.1859C503.395 25.7118 500.698 25.3312 499.661 25.3312C498.624 25.3312 495.72 25.5215 494.06 28.1859L469.377 63.0138C465.228 68.9136 458.175 72.3394 450.5 72.3394C442.825 72.3394 435.773 68.9136 431.624 63.0138L406.94 28.1859C405.073 25.7118 402.377 25.3312 401.34 25.3312C400.303 25.3312 397.399 25.5215 395.739 28.1859L371.055 63.0138C366.906 68.9136 359.854 72.3394 352.179 72.3394C344.504 72.3394 337.451 68.9136 333.303 63.0138L308.619 28.1859C306.752 25.7118 304.055 25.3312 303.018 25.3312C301.981 25.3312 299.077 25.5215 297.418 28.1859L272.733 63.0138C268.585 68.9136 261.532 72.3394 253.857 72.3394C246.183 72.3394 239.13 68.9136 234.981 63.0138L210.297 28.1859C208.43 25.7118 205.734 25.3312 204.697 25.3312C203.659 25.3312 200.755 25.5215 199.096 28.1859L174.412 63.0138C170.263 68.9136 163.211 72.3394 155.536 72.3394C147.861 72.3394 140.808 68.9136 136.66 63.0138L111.976 28.1859C110.109 25.7118 107.412 25.3312 106.375 25.3312C105.338 25.3312 102.434 25.5215 100.774 28.1859L76.0904 63.0138C71.9418 68.9136 64.8891 72.3394 57.2143 72.3394C49.5394 72.3394 42.4868 68.9136 38.3382 63.0138L1.41583 11.0574C-0.865896 7.63173 0.1712 3.25446 3.6975 1.16097C7.43123 -0.932508 12.2021 0.019072 14.4839 3.25445L51.4063 55.2109C53.2731 57.685 55.9697 58.0656 57.0069 58.0656C58.044 58.0656 60.9481 57.8753 62.6075 55.2109L87.2915 20.3829C91.4401 14.4831 98.4928 11.0574 106.168 11.0574C113.843 11.0574 120.895 14.4831 125.044 20.3829L149.728 55.2109C151.595 57.685 154.291 58.0656 155.328 58.0656C156.366 58.0656 159.27 57.8753 160.929 55.2109L185.613 20.3829C189.762 14.4831 196.814 11.0574 204.489 11.0574C212.164 11.0574 219.217 14.4831 223.365 20.3829L248.049 55.2109C249.916 57.685 252.613 58.0656 253.65 58.0656C254.687 58.0656 257.591 57.8753 259.251 55.2109L283.935 20.3829C288.083 14.4831 295.136 11.0574 302.811 11.0574C310.486 11.0574 317.538 14.4831 321.687 20.3829L346.371 55.2109C348.238 57.685 350.934 58.0656 351.971 58.0656C353.009 58.0656 355.913 57.8753 357.572 55.2109L382.256 20.3829C386.405 14.4831 393.457 11.0574 401.132 11.0574C408.807 11.0574 415.86 14.4831 420.008 20.3829L444.692 55.2109C446.559 57.685 449.256 58.0656 450.293 58.0656C451.33 58.0656 454.234 57.8753 455.894 55.2109L480.578 20.3829C484.726 14.4831 491.779 11.0574 499.454 11.0574C507.129 11.0574 514.181 14.4831 518.33 20.3829L543.014 55.2109C544.881 57.685 547.577 58.0656 548.615 58.0656C549.652 58.0656 552.556 57.8753 554.215 55.2109L578.899 20.3829C583.048 14.4831 590.1 11.0574 597.775 11.0574C605.45 11.0574 612.503 14.4831 616.651 20.3829L641.335 55.2109C643.202 57.685 645.899 58.0656 646.936 58.0656C647.973 58.0656 650.877 57.8753 652.537 55.2109L689.667 3.25445C691.948 -0.171244 696.926 -0.932508 700.453 1.16097C704.186 3.25446 705.016 7.82205 702.735 11.0574L665.812 63.0138C661.664 68.9136 654.611 72.3394 647.143 72.3394Z" fill="#77E8C6"/>
<path d="M647.148 135.525C639.473 135.525 632.42 132.099 628.272 126.199L603.588 91.3711C601.721 88.897 599.024 88.5164 597.987 88.5164C596.95 88.5164 594.046 88.7067 592.386 91.3711L567.702 126.199C563.554 132.099 556.501 135.525 548.826 135.525C541.151 135.525 534.099 132.099 529.95 126.199L505.266 91.3711C503.399 88.897 500.703 88.5164 499.666 88.5164C498.628 88.5164 495.724 88.7067 494.065 91.3711L469.381 126.199C465.232 132.099 458.18 135.525 450.505 135.525C442.83 135.525 435.777 132.099 431.629 126.199L406.944 91.3711C405.078 88.897 402.381 88.5164 401.344 88.5164C400.307 88.5164 397.403 88.7067 395.743 91.3711L371.059 126.199C366.911 132.099 359.858 135.525 352.183 135.525C344.508 135.525 337.456 132.099 333.307 126.199L308.623 91.3711C306.756 88.897 304.06 88.5164 303.022 88.5164C301.985 88.5164 299.081 88.7067 297.422 91.3711L272.738 126.199C268.589 132.099 261.537 135.525 253.862 135.525C246.187 135.525 239.134 132.099 234.986 126.199L210.301 91.3711C208.435 88.897 205.738 88.5164 204.701 88.5164C203.664 88.5164 200.76 88.7067 199.1 91.3711L174.416 126.199C170.268 132.099 163.215 135.525 155.54 135.525C147.865 135.525 140.813 132.099 136.664 126.199L111.98 91.3711C110.113 88.897 107.416 88.5164 106.379 88.5164C105.342 88.5164 102.438 88.7067 100.779 91.3711L76.0946 126.199C71.9461 132.099 64.8934 135.525 57.2185 135.525C49.5436 135.525 42.491 132.099 38.3425 126.199L1.42004 74.2426C-0.861685 70.8169 0.175412 66.4396 3.70171 64.3462C7.43544 62.2527 12.2063 63.2042 14.4881 66.4396L51.4105 118.396C53.2773 120.87 55.974 121.251 57.0111 121.251C58.0482 121.251 60.9523 121.06 62.6117 118.396L87.2958 83.5681C91.4443 77.6683 98.497 74.2426 106.172 74.2426C113.847 74.2426 120.899 77.6683 125.048 83.5681L149.732 118.396C151.599 120.87 154.296 121.251 155.333 121.251C156.37 121.251 159.274 121.06 160.933 118.396L185.617 83.5681C189.766 77.6683 196.818 74.2426 204.493 74.2426C212.168 74.2426 219.221 77.6683 223.37 83.5681L248.054 118.396C249.92 120.87 252.617 121.251 253.654 121.251C254.691 121.251 257.595 121.06 259.255 118.396L283.939 83.5681C288.088 77.6683 295.14 74.2426 302.815 74.2426C310.49 74.2426 317.542 77.6683 321.691 83.5681L346.375 118.396C348.242 120.87 350.939 121.251 351.976 121.251C353.013 121.251 355.917 121.06 357.576 118.396L382.261 83.5681C386.409 77.6683 393.462 74.2426 401.137 74.2426C408.811 74.2426 415.864 77.6683 420.013 83.5681L444.697 118.396C446.564 120.87 449.26 121.251 450.297 121.251C451.334 121.251 454.239 121.06 455.898 118.396L480.582 83.5681C484.73 77.6683 491.783 74.2426 499.458 74.2426C507.133 74.2426 514.186 77.6683 518.334 83.5681L543.018 118.396C544.885 120.87 547.582 121.251 548.619 121.251C549.656 121.251 552.56 121.06 554.219 118.396L578.904 83.5681C583.052 77.6683 590.105 74.2426 597.78 74.2426C605.454 74.2426 612.507 77.6683 616.656 83.5681L641.34 118.396C643.207 120.87 645.903 121.251 646.94 121.251C647.978 121.251 650.882 121.06 652.541 118.396L689.464 66.4396C691.745 63.0139 696.723 62.2527 700.25 64.3462C703.983 66.4396 704.813 71.0072 702.531 74.2426L665.609 126.199C661.668 132.099 654.615 135.525 647.148 135.525Z" fill="#77E8C6"/>
</g>
<defs>
<clipPath id="clip0">
<rect width="590" height="120" fill="white"/>
</clipPath>
</defs>
</svg>

<svg width="590" height="120" fill="none" xmlns="http://www.w3.org/2000/svg"><g clip-path="url(#clip0)" fill="#77E8C6"><path d="M647.143 72.34c-7.674 0-14.727-3.426-18.876-9.326l-24.684-34.828c-1.867-2.474-4.563-2.855-5.6-2.855s-3.941.19-5.601 2.855l-24.684 34.828c-4.149 5.9-11.201 9.325-18.876 9.325-7.675 0-14.728-3.425-18.876-9.325l-24.684-34.828c-1.867-2.474-4.564-2.855-5.601-2.855s-3.941.19-5.601 2.855l-24.683 34.828c-4.149 5.9-11.202 9.325-18.877 9.325-7.675 0-14.727-3.425-18.876-9.325L406.94 28.186c-1.867-2.474-4.563-2.855-5.6-2.855s-3.941.19-5.601 2.855l-24.684 34.828c-4.149 5.9-11.201 9.325-18.876 9.325-7.675 0-14.728-3.425-18.876-9.325l-24.684-34.828c-1.867-2.474-4.564-2.855-5.601-2.855s-3.941.19-5.6 2.855l-24.685 34.828c-4.148 5.9-11.201 9.325-18.876 9.325-7.674 0-14.727-3.425-18.876-9.325l-24.684-34.828c-1.867-2.474-4.563-2.855-5.6-2.855-1.038 0-3.942.19-5.601 2.855l-24.684 34.828c-4.149 5.9-11.201 9.325-18.876 9.325-7.675 0-14.728-3.425-18.876-9.325l-24.684-34.828c-1.867-2.474-4.564-2.855-5.601-2.855s-3.941.19-5.601 2.855L76.09 63.014c-4.148 5.9-11.2 9.325-18.876 9.325-7.675 0-14.727-3.425-18.876-9.325L1.416 11.057C-.866 7.632.17 3.254 3.697 1.161 7.431-.933 12.203.019 14.485 3.254l36.922 51.957c1.867 2.474 4.564 2.855 5.6 2.855 1.038 0 3.942-.19 5.602-2.855l24.684-34.828c4.148-5.9 11.2-9.326 18.876-9.326 7.675 0 14.727 3.426 18.876 9.326l24.684 34.828c1.867 2.474 4.563 2.855 5.6 2.855 1.038 0 3.942-.19 5.601-2.855l24.684-34.828c4.149-5.9 11.201-9.326 18.876-9.326 7.675 0 14.728 3.426 18.876 9.326l24.684 34.828c1.867 2.474 4.564 2.855 5.601 2.855s3.941-.19 5.601-2.855l24.684-34.828c4.148-5.9 11.201-9.326 18.876-9.326 7.675 0 14.727 3.426 18.876 9.326l24.684 34.828c1.867 2.474 4.563 2.855 5.6 2.855 1.038 0 3.942-.19 5.601-2.855l24.684-34.828c4.149-5.9 11.201-9.326 18.876-9.326 7.675 0 14.728 3.426 18.876 9.326l24.684 34.828c1.867 2.474 4.564 2.855 5.601 2.855s3.941-.19 5.601-2.855l24.684-34.828c4.148-5.9 11.201-9.326 18.876-9.326 7.675 0 14.727 3.426 18.876 9.326l24.684 34.828c1.867 2.474 4.563 2.855 5.601 2.855 1.037 0 3.941-.19 5.6-2.855L578.9 20.383c4.149-5.9 11.201-9.326 18.876-9.326 7.675 0 14.728 3.426 18.876 9.326l24.684 34.828c1.867 2.474 4.564 2.855 5.601 2.855s3.941-.19 5.601-2.855l37.13-51.957c2.281-3.425 7.259-4.187 10.786-2.093 3.733 2.093 4.563 6.661 2.282 9.896l-36.923 51.957c-4.148 5.9-11.201 9.325-18.669 9.325z"/><path d="M647.148 135.525c-7.675 0-14.728-3.426-18.876-9.326l-24.684-34.828c-1.867-2.474-4.564-2.855-5.601-2.855s-3.941.19-5.601 2.855L567.702 126.2c-4.148 5.9-11.201 9.326-18.876 9.326-7.675 0-14.727-3.426-18.876-9.326l-24.684-34.828c-1.867-2.474-4.563-2.855-5.6-2.855-1.038 0-3.942.19-5.601 2.855L469.381 126.2c-4.149 5.9-11.201 9.326-18.876 9.326-7.675 0-14.728-3.426-18.876-9.326l-24.685-34.828c-1.866-2.474-4.563-2.855-5.6-2.855s-3.941.19-5.601 2.855L371.059 126.2c-4.148 5.9-11.201 9.326-18.876 9.326-7.675 0-14.727-3.426-18.876-9.326l-24.684-34.828c-1.867-2.474-4.563-2.855-5.601-2.855-1.037 0-3.941.19-5.6 2.855L272.738 126.2c-4.149 5.9-11.201 9.326-18.876 9.326-7.675 0-14.728-3.426-18.876-9.326l-24.685-34.828c-1.866-2.474-4.563-2.855-5.6-2.855s-3.941.19-5.601 2.855L174.416 126.2c-4.148 5.9-11.201 9.326-18.876 9.326-7.675 0-14.727-3.426-18.876-9.326L111.98 91.371c-1.867-2.474-4.564-2.855-5.601-2.855s-3.941.19-5.6 2.855L76.095 126.2c-4.149 5.9-11.202 9.326-18.877 9.326-7.674 0-14.727-3.426-18.876-9.326L1.42 74.243C-.862 70.817.175 66.44 3.702 64.346c3.733-2.093 8.504-1.142 10.786 2.094l36.922 51.956c1.867 2.474 4.564 2.855 5.601 2.855s3.941-.191 5.6-2.855l24.685-34.828c4.148-5.9 11.201-9.325 18.876-9.325 7.675 0 14.727 3.425 18.876 9.325l24.684 34.828c1.867 2.474 4.564 2.855 5.601 2.855s3.941-.191 5.6-2.855l24.684-34.828c4.149-5.9 11.201-9.325 18.876-9.325 7.675 0 14.728 3.425 18.877 9.325l24.684 34.828c1.866 2.474 4.563 2.855 5.6 2.855s3.941-.191 5.601-2.855l24.684-34.828c4.149-5.9 11.201-9.325 18.876-9.325 7.675 0 14.727 3.425 18.876 9.325l24.684 34.828c1.867 2.474 4.564 2.855 5.601 2.855s3.941-.191 5.6-2.855l24.685-34.828c4.148-5.9 11.201-9.325 18.876-9.325 7.674 0 14.727 3.425 18.876 9.325l24.684 34.828c1.867 2.474 4.563 2.855 5.6 2.855s3.942-.191 5.601-2.855l24.684-34.828c4.148-5.9 11.201-9.325 18.876-9.325 7.675 0 14.728 3.425 18.876 9.325l24.684 34.828c1.867 2.474 4.564 2.855 5.601 2.855s3.941-.191 5.6-2.855l24.685-34.828c4.148-5.9 11.201-9.325 18.876-9.325 7.674 0 14.727 3.425 18.876 9.325l24.684 34.828c1.867 2.474 4.563 2.855 5.6 2.855 1.038 0 3.942-.191 5.601-2.855l36.923-51.956c2.281-3.426 7.259-4.187 10.786-2.094 3.733 2.094 4.563 6.661 2.281 9.897l-36.922 51.956c-3.941 5.9-10.994 9.326-18.461 9.326z"/></g><defs><clipPath id="clip0"><path fill="#fff" d="M0 0h590v120H0z"/></clipPath></defs></svg>
